svg/part/bowknot_fill.svg

<?xml version="1.0" encoding="UTF-8"?>
<svg width="24px" height="24px" viewBox="0 0 24 24" version="1.1" xmlns="http://www.w3.org/2000/svg" xmlns:xlink="http://www.w3.org/1999/xlink">
    <title>bowknot_fill</title>
    <g id="Icon" stroke="none" stroke-width="1" fill="none" fill-rule="evenodd">
        <g id="Part" transform="translate(-864.000000, -144.000000)">
            <g id="bowknot_fill" transform="translate(864.000000, 144.000000)">
                <path d="M24,0 L24,24 L0,24 L0,0 L24,0 Z M12.5935,23.2578 L12.5819,23.2595 L12.5109,23.295 L12.4919,23.2987 L12.4767,23.295 L12.4057,23.2595 C12.3958,23.2564 12.387,23.259 12.3821,23.2649 L12.378,23.2758 L12.3609,23.7031 L12.3659,23.7235 L12.3769,23.7357 L12.4805,23.8097 L12.4953,23.8136 L12.5071,23.8097 L12.6107,23.7357 L12.6233,23.7197 L12.6267,23.7031 L12.6096,23.2758 C12.6076,23.2657 12.601,23.2593 12.5935,23.2578 Z M12.8584,23.1453 L12.8445,23.1473 L12.6598,23.2397 L12.6499,23.2499 L12.6472,23.2611 L12.6651,23.6906 L12.6699,23.7034 L12.6784,23.7105 L12.8793,23.8032 C12.8914,23.8069 12.9022,23.803 12.9078,23.7952 L12.9118,23.7812 L12.8777,23.1665 C12.8753,23.1546 12.8674,23.147 12.8584,23.1453 Z M12.143,23.1473 C12.1332,23.1424 12.1222,23.1453 12.1156,23.1526 L12.1099,23.1665 L12.0758,23.7812 C12.0751,23.7927 12.0828,23.8019 12.0926,23.8046 L12.1083,23.8032 L12.3092,23.7105 L12.3186,23.7024 L12.3225,23.6906 L12.3404,23.2611 L12.3372,23.2485 L12.3278,23.2397 L12.143,23.1473 Z" id="MingCute" fill-rule="nonzero"></path>
                <path d="M19.0894,4.66792 C19.9124,5.41547 20.7822,6.66131 21.33,8.70587 C21.8779,10.7504 21.7476,12.2642 21.4085,13.3232 C20.8908,14.9404 19.2002,15.225 18.0563,14.9909 L16.0126,14.5727 C16.317,15.2451 16.4075,15.9891 16.4339,16.5772 C16.4432214,16.7844571 16.4446816,16.994575 16.4410583,17.199793 L16.4278568,17.6013966 L16.4278568,17.6013966 L16.4060375,17.9761375 L16.4060375,17.9761375 L16.3331,18.877 L16.3331,18.877 C16.3152,19.2047 16.1377,19.5027 15.8581,19.6745 L13.1637,21.3298 C12.8309,21.5343 12.4096,21.5263 12.0849,21.3094 C11.7601,21.0925 11.5913,20.7064 11.6526,20.3207 C11.7614,19.6433 11.869,18.9653 11.9157,18.2802 C11.3645,18.9113 10.71,19.423 10.089,19.9797 C9.8446,20.1987 9.50834,20.2839 9.18917,20.2077 L6.11344,19.4729 C5.73359,19.3822 5.44133,19.0787 5.36504,18.6956 C5.28876,18.3126 5.44241,17.9203 5.7585,17.6909 C6.34695,17.2653 6.93501,16.8381 7.47778,16.3543 C8.13125,15.7719 8.47645,15.2358 8.76239,14.4143 L5.94367,14.9911 C4.79975,15.2252 3.10922,14.9405 2.59146,13.3233 C2.25243,12.2644 2.12212,10.7506 2.66996,8.70604 C3.2178,6.66148 4.08754,5.41564 4.91063,4.66809 C6.16762,3.52644 7.77399,4.12518 8.64761,4.89987 L11.1528,7.12134 C11.4215,7.04241 11.7058,7.00006 12,7.00006 C12.2941,7.00006 12.5784,7.0424 12.847,7.12131 L15.3524,4.8997 C16.226,4.12501 17.8324,3.52627 19.0894,4.66792 Z M13.0091,14.3468 C13.082075,14.602325 13.1796875,14.8561063 13.3067891,15.1019 L13.4439,15.3448 C13.7191,15.7927 13.8386,16.3211 13.8935,16.7925 C13.94678,17.24978 13.948284,17.726836 13.9247896,18.1870088 L13.9029,18.5284 L14.3779,18.2366 C14.4173,17.7881 14.4624,17.2547 14.4359,16.6671 C14.399875,15.86465 14.2323465,15.3511715 14.0030226,15.1020164 L13.939,15.0406 L13.0091,14.3468 Z M10.9629,14.3884 C10.7811,14.7082 10.6343,15.0593 10.5436,15.439 C10.4215,15.9503 10.1323,16.4085 9.83787,16.7806 C9.552206,17.14164 9.2159244,17.480088 8.87391736,17.7888272 L8.61704,18.0147 L9.15925,18.1442 C9.50425,17.855 9.91327,17.5097 10.3101,17.0755 C10.9013,16.4286 11.1386,15.9144 11.1089,15.574 C11.0738,15.1735 11.042,14.7818 10.9629,14.3884 Z M12,9.00006 C11.4477,9.00006 11,9.44777 11,10.0001 L11,11.0001 C11,11.5523 11.4477,12.0001 12,12.0001 C12.5523,12.0001 13,11.5523 13,11.0001 L13,10.0001 C13,9.44777 12.5523,9.00006 12,9.00006 Z" id="形状" fill="#09244B"></path>
            </g>
        </g>
    </g>
</svg>

<svg xmlns="http://www.w3.org/2000/svg" width="24" height="24"><g fill="none" fill-rule="evenodd"><path d="M24 0v24H0V0h24ZM12.594 23.258l-.012.002-.071.035-.02.004-.014-.004-.071-.036c-.01-.003-.019 0-.024.006l-.004.01-.017.428.005.02.01.013.104.074.015.004.012-.004.104-.074.012-.016.004-.017-.017-.427c-.002-.01-.009-.017-.016-.018Zm.264-.113-.014.002-.184.093-.01.01-.003.011.018.43.005.012.008.008.201.092c.012.004.023 0 .029-.008l.004-.014-.034-.614c-.003-.012-.01-.02-.02-.022Zm-.715.002a.023.023 0 0 0-.027.006l-.006.014-.034.614c0 .012.007.02.017.024l.015-.002.201-.093.01-.008.003-.011.018-.43-.003-.012-.01-.01-.184-.092Z"/><path fill="#09244B" d="M19.09 4.668c.822.747 1.692 1.993 2.24 4.038.548 2.044.418 3.558.079 4.617-.518 1.617-2.209 1.902-3.353 1.668l-2.043-.418c.304.672.394 1.416.42 2.004.01.207.012.418.008.623l-.013.401-.022.375-.073.901a1 1 0 0 1-.475.797l-2.694 1.656a1 1 0 0 1-1.511-1.01c.108-.677.216-1.355.263-2.04-.552.631-1.206 1.143-1.827 1.7a1 1 0 0 1-.9.228l-3.076-.735a1 1 0 0 1-.355-1.782c.589-.426 1.177-.853 1.72-1.337.653-.582.998-1.118 1.284-1.94l-2.818.577c-1.144.234-2.835-.05-3.353-1.668-.339-1.059-.469-2.572.079-4.617.548-2.045 1.418-3.29 2.24-4.038 1.258-1.142 2.864-.543 3.738.232l2.505 2.221a3.002 3.002 0 0 1 1.694 0L15.352 4.9c.874-.775 2.48-1.374 3.737-.232Zm-6.08 9.679c.072.255.17.51.297.755l.137.243c.275.448.395.976.45 1.447.053.458.054.935.03 1.395l-.021.341.475-.291c.04-.449.084-.982.058-1.57-.036-.802-.204-1.316-.433-1.565l-.064-.061-.93-.694Zm-2.047.041c-.182.32-.329.671-.42 1.051-.121.511-.41.97-.705 1.342-.286.36-.622.7-.964 1.008l-.257.226.542.13c.345-.29.754-.635 1.151-1.07.591-.646.829-1.16.799-1.501-.035-.4-.067-.792-.146-1.186ZM12 9a1 1 0 0 0-1 1v1a1 1 0 0 0 2 0v-1a1 1 0 0 0-1-1Z"/></g></svg>
